icons/tokens/0xA0b86991c6218b36c1d19D4a2e9Eb0cE3606eB48/logo.svg

<svg xmlns="http://www.w3.org/2000/svg" width="32" height="32" viewBox="0 0 32 32">
  <g fill="none" fill-rule="evenodd">
    <path fill="#2775CA" d="M32,16 C32,13.90592 31.58336,11.81184 30.78208,9.87712 C29.9808,7.9424 28.79456,6.16704 27.3136,4.6864 C25.83296,3.20544 24.0576,2.0192 22.12288,1.21792 C20.18816,0.41664 18.09408,0 16,0 C13.90592,0 11.81184,0.41664 9.87712,1.21792 C7.9424,2.0192 6.16704,3.20544 4.6864,4.6864 C3.20544,6.16704 2.0192,7.9424 1.21792,9.87712 C0.41664,11.81184 0,13.90592 0,16 C0,18.09408 0.41664,20.18816 1.21792,22.12288 C2.0192,24.0576 3.20544,25.83296 4.6864,27.3136 C6.16704,28.79456 7.9424,29.9808 9.87712,30.78208 C11.81184,31.58336 13.90592,32 16,32 C18.09408,32 20.18816,31.58336 22.12288,30.78208 C24.0576,29.9808 25.83296,28.79456 27.3136,27.3136 C28.79456,25.83296 29.9808,24.0576 30.78208,22.12288 C31.58336,20.18816 32,18.09408 32,16 Z"/>
    <path fill="#FFF" d="M13.07008,27.0839762 C13.07008,27.4749465 12.79808,27.6051644 12.40352,27.6051644 C7.46496,26.0244911 4,21.5343525 4,16.2537188 C4,10.9730851 7.46496,6.48294653 12.40352,4.90227327 C12.79936,4.77554059 13.07008,5.03249109 13.07008,5.43233267 C13.07008,5.73902574 13.07008,6.04603564 13.07008,6.35272871 C13.07008,6.62203564 12.92992,6.88247129 12.66656,7.01268911 C8.79808,8.46314455 6.13152,12.0328871 6.13152,16.2537188 C6.13152,20.4834218 8.92992,24.1745109 12.66656,25.4947485 C12.92992,25.6249663 13.07008,25.8942733 13.07008,26.1547089 C13.07008,26.4645703 13.07008,26.7744317 13.07008,27.0839762 Z"/>
    <path fill="#FFF" d="M17.07008,23.7838574 C17.07008,24.0442931 16.79808,24.3047287 16.53504,24.3047287 C16.17824,24.3047287 15.82176,24.3047287 15.46496,24.3047287 C15.20192,24.3047287 14.92992,24.0442931 14.92992,23.7838574 C14.92992,23.2541149 14.92992,22.7240554 14.92992,22.1943129 C12.79808,21.9338772 11.73696,20.7438574 11.33344,19.0244119 C11.33344,18.7636594 11.46496,18.5032238 11.73696,18.5032238 C12.1344,18.5032238 12.53216,18.5032238 12.92992,18.5032238 C13.20192,18.5032238 13.33344,18.6334416 13.46496,18.8938772 C13.73696,19.8234614 14.26304,20.6136396 16,20.6136396 C17.33344,20.6136396 18.26304,19.9536792 18.26304,18.8938772 C18.26304,17.8432634 17.73696,17.4437386 15.86848,17.1829861 C13.0688,16.7926495 11.73696,15.9932832 11.73696,13.7437782 C11.73696,12.0328871 13.07008,10.7126495 14.92992,10.4433426 C14.92992,9.91645149 14.92992,9.3895604 14.92992,8.86266931 C14.92992,8.60223366 15.20192,8.33292673 15.46496,8.33292673 C15.82176,8.33292673 16.17824,8.33292673 16.53504,8.33292673 C16.79808,8.33292673 17.07008,8.60223366 17.07008,8.86266931 C17.07008,9.3895604 17.07008,9.91645149 17.07008,10.4433426 C18.66656,10.7126495 19.73696,11.6333624 20,13.0838178 C20,13.3531248 19.86848,13.6135604 19.59648,13.6135604 C19.24256,13.6135604 18.88896,13.6135604 18.53504,13.6135604 C18.26304,13.6135604 18.13152,13.4833426 18,13.2225901 C17.73696,12.2933228 17.07008,11.9026693 15.86848,11.9026693 C14.53504,11.9026693 13.86848,12.5626297 13.86848,13.4833426 C13.86848,14.4037386 14.26304,14.9334812 16.26304,15.2027881 C19.072,15.5810851 20.40352,16.3839366 20.40352,18.6334416 C20.40352,20.3443327 19.07008,21.8036594 17.07008,22.1943129 L17.07008,23.7838574 Z"/>
    <path fill="#FFF" d="M19.59648,27.6051644 C19.20192,27.7442535 18.92992,27.4749465 18.92992,27.0839762 C18.92992,26.7744317 18.92992,26.4645703 18.92992,26.1547089 C18.92992,25.8942733 19.07008,25.6249663 19.33344,25.4947485 C23.20192,24.0442931 25.86848,20.4834218 25.86848,16.2537188 C25.86848,12.0328871 23.07008,8.33292673 19.33344,7.01268911 C19.07008,6.88247129 18.92992,6.62203564 18.92992,6.35272871 C18.92992,6.04603564 18.92992,5.73902574 18.92992,5.43233267 C18.92992,5.03249109 19.20192,4.90227327 19.59648,4.90227327 C24.40352,6.48294653 28,10.9730851 28,16.2537188 C28,21.5343525 24.53504,26.0244911 19.59648,27.6051644 Z"/>
  </g>
</svg>

<svg xmlns="http://www.w3.org/2000/svg" width="32" height="32"><g fill="none" fill-rule="evenodd"><path fill="#2775CA" d="M32 16c0-2.094-.417-4.188-1.218-6.123a16.047 16.047 0 00-3.468-5.19 16.047 16.047 0 00-5.191-3.47A16.055 16.055 0 0016 0c-2.094 0-4.188.417-6.123 1.218a16.047 16.047 0 00-5.19 3.468 16.047 16.047 0 00-3.47 5.191A16.055 16.055 0 000 16c0 2.094.417 4.188 1.218 6.123a16.047 16.047 0 003.468 5.19 16.047 16.047 0 005.191 3.47A16.055 16.055 0 0016 32c2.094 0 4.188-.417 6.123-1.218a16.047 16.047 0 005.19-3.468 16.047 16.047 0 003.47-5.191A16.055 16.055 0 0032 16z"/><path fill="#FFF" d="M13.07 27.084c0 .39-.272.521-.666.521C7.465 26.025 4 21.535 4 16.254c0-5.28 3.465-9.771 8.404-11.352.395-.126.666.13.666.53v.92c0 .27-.14.53-.403.66-3.869 1.451-6.535 5.02-6.535 9.242 0 4.23 2.798 7.92 6.535 9.24.263.131.403.4.403.66v.93z"/><path fill="#FFF" d="M17.07 23.784c0 .26-.272.52-.535.52h-1.07c-.263 0-.535-.26-.535-.52v-1.59c-2.132-.26-3.193-1.45-3.597-3.17 0-.26.132-.52.404-.52h1.193c.272 0 .403.13.535.39.272.93.798 1.72 2.535 1.72 1.333 0 2.263-.66 2.263-1.72 0-1.05-.526-1.45-2.395-1.711-2.8-.39-4.131-1.19-4.131-3.44 0-1.71 1.333-3.03 3.193-3.3v-1.58c0-.26.272-.53.535-.53h1.07c.263 0 .535.27.535.53v1.58c1.597.27 2.667 1.19 2.93 2.64 0 .27-.132.53-.404.53h-1.061c-.272 0-.403-.13-.535-.39-.263-.93-.93-1.32-2.132-1.32-1.333 0-2 .66-2 1.58s.395 1.45 2.395 1.72c2.809.378 4.14 1.18 4.14 3.43 0 1.711-1.333 3.17-3.333 3.561v1.59z"/><path fill="#FFF" d="M19.596 27.605c-.394.14-.666-.13-.666-.521v-.93c0-.26.14-.529.403-.66 3.869-1.45 6.535-5.01 6.535-9.24 0-4.221-2.798-7.921-6.535-9.241a.727.727 0 01-.403-.66v-.92c0-.4.272-.53.666-.53C24.404 6.482 28 10.972 28 16.252c0 5.281-3.465 9.771-8.404 11.352z"/></g></svg>
